app/images/icon-nav-profile-hover.svg

<svg height="42" viewBox="0 0 36 42" width="36" xmlns="http://www.w3.org/2000/svg"><g style="stroke:#2c96ff;stroke-width:1.190476;fill:#2c96ff;fill-rule:evenodd;stroke-linecap:round;stroke-linejoin:round" transform="translate(9 14)"><path d="m11.502381 11.9761905h.0928571c3.6160714 0 6.547619 2.9315476 6.547619 6.547619h-17.85714281c0-3.6160714 2.93095238-6.547619 6.54761904-6.547619h.07380953"/><path d="m9.2139881 12.5714286c-2.62976191 0-4.76190477-2.1321429-4.76190477-4.76190479v-2.38095238c0-2.62976191 2.13214286-4.76190476 4.76190477-4.76190476 2.6297619 0 4.7619048 2.13214285 4.7619048 4.76190476v2.38095238c0 2.62976189-2.1321429 4.76190479-4.7619048 4.76190479z"/></g></svg>

<?xml version="1.0" encoding="UTF-8"?>
<svg width="36px" height="42px" viewBox="0 0 36 42" version="1.1" xmlns="http://www.w3.org/2000/svg" xmlns:xlink="http://www.w3.org/1999/xlink">
    <!-- Generator: Sketch 47.1 (45422) - http://www.bohemiancoding.com/sketch -->
    <title>icon-nav-profile-hover</title>
    <desc>Created with Sketch.</desc>
    <defs></defs>
    <g id="Symbols" stroke="none" stroke-width="1" fill="none" fill-rule="evenodd" stroke-linecap="round" stroke-linejoin="round">
        <g id="browser-macOS-40a-profile-verified-d18" transform="translate(-172.000000, -46.000000)" stroke="#2C96FF" stroke-width="1.19047619" fill="#2C96FF">
            <g id="navbar-w352px-top0" transform="translate(58.000000, 34.000000)">
                <g id="profile:hover" transform="translate(88.000000, 0.000000)">
                    <g id="profile-solid" transform="translate(35.000000, 26.000000)">
                        <path d="M11.502381,11.9761905 L11.5952381,11.9761905 C15.2113095,11.9761905 18.1428571,14.9077381 18.1428571,18.5238095 L18.1428571,18.5238095 L0.285714286,18.5238095 C0.285714286,14.9077381 3.21666667,11.9761905 6.83333333,11.9761905 L6.90714286,11.9761905" id="Stroke-6053"></path>
                        <path d="M9.2139881,12.5714286 L9.2139881,12.5714286 C6.58422619,12.5714286 4.45208333,10.4392857 4.45208333,7.80952381 L4.45208333,5.42857143 C4.45208333,2.79880952 6.58422619,0.666666667 9.2139881,0.666666667 L9.2139881,0.666666667 C11.84375,0.666666667 13.9758929,2.79880952 13.9758929,5.42857143 L13.9758929,7.80952381 C13.9758929,10.4392857 11.84375,12.5714286 9.2139881,12.5714286 L9.2139881,12.5714286 Z" id="Stroke-6055"></path>
                    </g>
                </g>
            </g>
        </g>
    </g>
</svg>
